svg/UnitedNationsOCHA-Humanitarian/food_NFI_mosquito_net_icon_box.svg

<svg xmlns="http://www.w3.org/2000/svg" viewBox="0 0 32 32" enable-background="new 0 0 32 32"><path fill="#407cca" d="m15.709 26.768l-1.241 1.242-1.244-1.242 1.244-1.244 1.241 1.244m-13.1 1.515l1.241 1.24 1.242-1.24-1.242-1.241-1.241 1.241m9.1 0l1.246 1.242 1.244-1.242-1.244-1.242-1.246 1.242m3.038 0l1.242 1.242 1.244-1.242-1.244-1.242-1.242 1.242m-9.378-2.76l-1.244 1.242 1.244 1.244 1.242-1.242-1.242-1.244m12.136 0l-1.244 1.244 1.244 1.242 1.242-1.242-1.242-1.244m-11.863 2.76l1.244 1.242 1.244-1.242-1.244-1.242-1.244 1.242m2.758-2.76l-1.241 1.244 1.244 1.243 1.242-1.242-1.245-1.245m.278 2.76l1.242 1.24 1.241-1.24-1.241-1.241-1.242 1.241m2.758-2.76l-1.242 1.242 1.242 1.244 1.242-1.242-1.242-1.244m15.45 2.76l1.242 1.242 1.244-1.242-1.244-1.242-1.242 1.242m-9.105 0l1.24 1.242 1.244-1.242-1.244-1.242-1.24 1.242m10.345-1.793l1.246-1.242-1.246-1.242-1.243 1.242 1.243 1.242m-.273-2.758l-.173-.173h-2.141l-.172.172 1.243 1.243 1.243-1.242m-1.244 1.791l-1.241 1.242 1.242 1.242 1.241-1.24-1.242-1.244m-6.07-.002l-1.244 1.246 1.244 1.242 1.243-1.244-1.243-1.244m3.036 0l-1.242 1.244 1.242 1.242 1.242-1.242-1.242-1.244m-2.759 2.762l1.242 1.242 1.242-1.242-1.242-1.242-1.242 1.242m3.034 0l1.244 1.242 1.242-1.242-1.242-1.242-1.244 1.242m-13.928-1.793l1.239-1.24-1.242-1.244-1.242 1.241 1.245 1.243m15.172 0l1.24-1.242-1.242-1.242-1.242 1.241 1.244 1.243m-12.414-2.758l-.174-.173h-2.141l-.172.172 1.242 1.243 1.245-1.242m.275 2.76l1.242-1.242-1.242-1.244-1.244 1.242 1.244 1.244m-6.069-.002l1.242-1.24-1.242-1.244-1.242 1.242 1.242 1.242m25.12-20.09v19.2c0 3.521-2.88 6.4-6.4 6.4h-19.2c-3.52 0-6.4-2.88-6.4-6.4v-19.2c0-3.52 2.88-6.4 6.4-6.4h19.2c3.52 0 6.4 2.88 6.4 6.4m-24.589 9.719c-.002.095.02.192.067.286.266.53 1 .668 1.911.681 1.578-.003 3.764-.49 5.176-.862l.441.42c-.513.167-1.316.491-1.861 1.073l-.033.039-.315 2.226-1.444 1.745.161.154 1.783-1.636.328-2.243c.431-.43 1.236-.726 1.689-.864.055.136.138.259.259.35 0 .025.008.055.011.078h-.003c-.258 0-.595.122-.595.491 0 .016.005.035.005.055.041.383.397.618.658.764l.244 2.531.225-.003.136-2.489c.269-.13.689-.372.745-.8.002-.013.002-.038 0-.058.002-.372-.334-.491-.597-.491l-.006.003c.003-.023.009-.051.016-.081.118-.087.201-.211.261-.345.447.134 1.25.438 1.708.92l.258 2.119 1.818 1.699.167-.154-1.469-1.795-.262-2.114-.064-.104c-.545-.576-1.347-.909-1.864-1.07l.447-.42c1.414.362 3.595.859 5.175.859.911-.001 1.644-.148 1.908-.678.05-.094.074-.192.074-.292-.092-.995-2.3-1.141-4.495-1.173-.633 0-1.261.021-1.839.052l2.494-3.444c.381-.216 1.706-1.064 2.762-1.394l-.055-.222c-.011.006-2.103.339-3.1 1.219l-2.784 3.825-.097.075c-.307.028-.59.064-.83.091l2.232-3.056-.831-2.478c.112-1.018 1.843-4.388 1.843-4.391l-.171-.143c-1.133.935-2.087 4.163-2.234 4.553l.772 2.364-1.73 2.367c.047-.414.078-.892.078-1.417-.045-1.467-.114-2.612-.595-2.731-.477.119-.547 1.267-.592 2.731 0 .531.028 1.016.08 1.43l-1.741-2.379.769-2.303c0 0-.842-3.462-2.225-4.611l-.175.139c.003.003 1.729 3.373 1.834 4.436l-.823 2.436 2.231 3.06c-.237-.036-.523-.069-.823-.097l-.1-.075-2.773-3.806c-1.012-.898-3.103-1.234-3.112-1.234l-.05.219c1.053.333 2.388 1.188 2.758 1.394l2.497 3.444c-.578-.031-1.212-.052-1.837-.058-2.201.033-4.408.178-4.496 1.183m22.989 6.4h-28.8v1.041h1.803l.173.173-1.244 1.242-.732-.733v.549l.458.457-.448.447c.003.172.03.336.052.502l.672-.674 1.242 1.242-1.243 1.245-.131-.132c.444.813 1.108 1.479 1.922 1.921l1.242-1.242 1.242 1.242-.566.565c.121.009.236.036.358.036h.156l.327-.327.326.327h.547l-.6-.602 1.244-1.241 1.242 1.242-.603.601h.553l.327-.327.326.327h.545l-.6-.601 1.242-1.243 1.242 1.242-.601.602h.55l.328-.328.329.328h.547l-.602-.602 1.244-1.242 1.241 1.242-.6.602h.55l.327-.327.325.327h.548l-.602-.602 1.244-1.242 1.242 1.242-.601.602h.548l.328-.328.328.328h.546l-.601-.602 1.244-1.242 1.243 1.243-.6.601h.55l.325-.325.326.325h.55l-.6-.601 1.242-1.242 1.242 1.242-.6.601h.552l.325-.325.325.325h.184c.114 0 .221-.025.332-.033l-.567-.567 1.242-1.242 1.241 1.241-.036.035c.861-.453 1.561-1.151 2.02-2.01l-.186.187-1.246-1.242 1.246-1.244.695.695c.021-.166.045-.328.05-.498l-.472-.473.484-.484v-.545l-.758.756-1.246-1.242.176-.173h1.829v-1.041m-23.791 1.213l-.173-.172h-2.134l-.177.175 1.241 1.24 1.243-1.243m-2.76 2.76l1.244-1.244-1.243-1.242-1.244 1.242 1.243 1.244m5.792-2.76l-.175-.172h-2.135l-.173.173 1.242 1.241 1.241-1.242m6.07 0l-.173-.173h-2.138l-.173.173 1.242 1.242 1.242-1.242m9.103-.0001l-.172-.172h-2.14l-.173.173 1.242 1.241 1.243-1.242m-3.03.0001l-.176-.173h-2.142l-.174.172 1.245 1.243 1.247-1.242m.272 2.758l1.242-1.243-1.24-1.241-1.244 1.242 1.242 1.242m-3.036.002l1.245-1.244-1.245-1.243-1.242 1.243 1.242 1.244m-3.03-.002l1.243-1.242-1.243-1.24-1.242 1.242 1.242 1.24m2.758-2.759l-.172-.172h-2.135l-.177.175 1.241 1.239 1.243-1.242"/></svg>

<?xml version="1.0" encoding="utf-8"?>
<!-- Generator: Adobe Illustrator 16.0.3, SVG Export Plug-In . SVG Version: 6.00 Build 0)  -->
<!DOCTYPE svg PUBLIC "-//W3C//DTD SVG 1.1//EN" "http://www.w3.org/Graphics/SVG/1.1/DTD/svg11.dtd">
<svg version="1.1" id="Layer_1" xmlns="http://www.w3.org/2000/svg" xmlns:xlink="http://www.w3.org/1999/xlink" x="0px" y="0px"
	 width="32px" height="32px" viewBox="0 0 32 32" enable-background="new 0 0 32 32" xml:space="preserve">
<path fill="#407CCA" d="M15.709,26.768l-1.241,1.242l-1.244-1.242l1.244-1.244L15.709,26.768z M2.608,28.283l1.241,1.24l1.242-1.24
	l-1.242-1.241L2.608,28.283z M11.706,28.283l1.246,1.242l1.244-1.242l-1.244-1.242L11.706,28.283z M14.744,28.283l1.242,1.242
	l1.244-1.242l-1.244-1.242L14.744,28.283z M5.366,25.523l-1.244,1.242l1.244,1.244l1.242-1.242L5.366,25.523z M17.502,25.523
	l-1.244,1.244l1.244,1.242l1.242-1.242L17.502,25.523z M5.639,28.283l1.244,1.242l1.244-1.242l-1.244-1.242L5.639,28.283z
	 M8.397,25.523l-1.241,1.244L8.4,28.01l1.242-1.242L8.397,25.523z M8.675,28.283l1.242,1.24l1.241-1.24l-1.241-1.241L8.675,28.283z
	 M11.433,25.523l-1.242,1.242l1.242,1.244l1.242-1.242L11.433,25.523z M26.883,28.283l1.242,1.242l1.244-1.242l-1.244-1.242
	L26.883,28.283z M17.778,28.283l1.24,1.242l1.244-1.242l-1.244-1.242L17.778,28.283z M28.123,26.49l1.246-1.242l-1.246-1.242
	l-1.243,1.242L28.123,26.49z M27.85,23.732l-0.173-0.173h-2.141l-0.172,0.172l1.243,1.243L27.85,23.732z M26.606,25.523
	l-1.241,1.242l1.242,1.242l1.241-1.24L26.606,25.523z M20.536,25.521l-1.244,1.246l1.244,1.242l1.243-1.244L20.536,25.521z
	 M23.572,25.521l-1.242,1.244l1.242,1.242l1.242-1.242L23.572,25.521z M20.813,28.283l1.242,1.242l1.242-1.242l-1.242-1.242
	L20.813,28.283z M23.847,28.283l1.244,1.242l1.242-1.242l-1.242-1.242L23.847,28.283z M9.919,26.49l1.239-1.24l-1.242-1.244
	l-1.242,1.241L9.919,26.49z M25.091,26.49l1.24-1.242l-1.242-1.242l-1.242,1.241L25.091,26.49z M12.677,23.732l-0.174-0.173h-2.141
	l-0.172,0.172l1.242,1.243L12.677,23.732z M12.952,26.492l1.242-1.242l-1.242-1.244l-1.244,1.242L12.952,26.492z M6.883,26.49
	l1.242-1.24l-1.242-1.244l-1.242,1.242L6.883,26.49z M32,6.4v19.2c0,3.521-2.88,6.4-6.4,6.4H6.4C2.88,32,0,29.12,0,25.6V6.4
	C0,2.88,2.88,0,6.4,0h19.2C29.12,0,32,2.88,32,6.4z M7.411,16.119c-0.002,0.095,0.02,0.192,0.067,0.286
	c0.266,0.53,1,0.668,1.911,0.681c1.578-0.003,3.764-0.49,5.176-0.862l0.441,0.42c-0.513,0.167-1.316,0.491-1.861,1.073l-0.033,0.039
	l-0.315,2.226l-1.444,1.745l0.161,0.154l1.783-1.636l0.328-2.243c0.431-0.43,1.236-0.726,1.689-0.864
	c0.055,0.136,0.138,0.259,0.259,0.35c0,0.025,0.008,0.055,0.011,0.078h-0.003c-0.258,0-0.595,0.122-0.595,0.491
	c0,0.016,0.005,0.035,0.005,0.055c0.041,0.383,0.397,0.618,0.658,0.764l0.244,2.531l0.225-0.003l0.136-2.489
	c0.269-0.13,0.689-0.372,0.745-0.8c0.002-0.013,0.002-0.038,0-0.058c0.002-0.372-0.334-0.491-0.597-0.491l-0.006,0.003
	c0.003-0.023,0.009-0.051,0.016-0.081c0.118-0.087,0.201-0.211,0.261-0.345c0.447,0.134,1.25,0.438,1.708,0.92l0.258,2.119
	l1.818,1.699l0.167-0.154l-1.469-1.795l-0.262-2.114l-0.064-0.104c-0.545-0.576-1.347-0.909-1.864-1.07l0.447-0.42
	c1.414,0.362,3.595,0.859,5.175,0.859c0.911-0.01,1.644-0.148,1.908-0.678c0.05-0.094,0.074-0.192,0.074-0.292
	c-0.092-0.995-2.3-1.141-4.495-1.173c-0.633,0-1.261,0.021-1.839,0.052l2.494-3.444c0.381-0.216,1.706-1.064,2.762-1.394
	l-0.055-0.222c-0.011,0.006-2.103,0.339-3.1,1.219l-2.784,3.825l-0.097,0.075c-0.307,0.028-0.59,0.064-0.83,0.091l2.232-3.056
	l-0.831-2.478c0.112-1.018,1.843-4.388,1.843-4.391l-0.171-0.143c-1.133,0.935-2.087,4.163-2.234,4.553l0.772,2.364l-1.73,2.367
	c0.047-0.414,0.078-0.892,0.078-1.417c-0.045-1.467-0.114-2.612-0.595-2.731c-0.477,0.119-0.547,1.267-0.592,2.731
	c0,0.531,0.028,1.016,0.08,1.43l-1.741-2.379l0.769-2.303c0,0-0.842-3.462-2.225-4.611l-0.175,0.139
	c0.003,0.003,1.729,3.373,1.834,4.436l-0.823,2.436l2.231,3.06c-0.237-0.036-0.523-0.069-0.823-0.097l-0.1-0.075l-2.773-3.806
	c-1.012-0.898-3.103-1.234-3.112-1.234l-0.05,0.219c1.053,0.333,2.388,1.188,2.758,1.394l2.497,3.444
	c-0.578-0.031-1.212-0.052-1.837-0.058C9.706,14.969,7.499,15.114,7.411,16.119z M30.4,22.519H1.6v1.041h1.803l0.173,0.173
	l-1.244,1.242L1.6,24.242v0.549l0.458,0.457l-0.448,0.447c0.003,0.172,0.03,0.336,0.052,0.502l0.672-0.674l1.242,1.242L2.333,28.01
	l-0.131-0.132c0.444,0.813,1.108,1.479,1.922,1.921l1.242-1.242l1.242,1.242l-0.566,0.565C6.163,30.373,6.278,30.4,6.4,30.4h0.156
	l0.327-0.327L7.209,30.4h0.547l-0.6-0.602L8.4,28.557l1.242,1.242L9.039,30.4h0.553l0.327-0.327l0.326,0.327h0.545l-0.6-0.601
	l1.242-1.243l1.242,1.242L12.073,30.4h0.55l0.328-0.328L13.28,30.4h0.547l-0.602-0.602l1.244-1.242l1.241,1.242l-0.6,0.602h0.55
	l0.327-0.327l0.325,0.327h0.548l-0.602-0.602l1.244-1.242l1.242,1.242L18.143,30.4h0.548l0.328-0.328l0.328,0.328h0.546
	l-0.601-0.602l1.244-1.242l1.243,1.243l-0.6,0.601h0.55l0.325-0.325L22.38,30.4h0.55l-0.6-0.601l1.242-1.242l1.242,1.242
	L24.214,30.4h0.552l0.325-0.325l0.325,0.325H25.6c0.114,0,0.221-0.025,0.332-0.033L25.365,29.8l1.242-1.242l1.241,1.241
	l-0.036,0.035c0.861-0.453,1.561-1.151,2.016-2.011l-0.186,0.187l-1.246-1.242l1.246-1.244l0.695,0.695
	c0.021-0.166,0.045-0.328,0.05-0.498l-0.472-0.473l0.484-0.484v-0.545l-0.758,0.756l-1.246-1.242l0.176-0.173H30.4V22.519z
	 M6.609,23.732L6.436,23.56H4.302l-0.177,0.175l1.241,1.24L6.609,23.732z M3.849,26.492l1.244-1.244L3.85,24.006l-1.244,1.242
	L3.849,26.492z M9.641,23.732L9.466,23.56H7.331l-0.173,0.173L8.4,24.974L9.641,23.732z M15.711,23.732l-0.173-0.173H13.4
	l-0.173,0.173l1.242,1.242L15.711,23.732z M24.814,23.731l-0.172-0.172h-2.14l-0.173,0.173l1.242,1.241L24.814,23.731z
	 M21.783,23.732l-0.176-0.173h-2.142l-0.174,0.172l1.245,1.243L21.783,23.732z M22.055,26.49l1.242-1.243l-1.24-1.241l-1.244,1.242
	L22.055,26.49z M19.019,26.492l1.245-1.244l-1.245-1.243l-1.242,1.243L19.019,26.492z M15.986,26.49l1.243-1.242l-1.243-1.24
	l-1.242,1.242L15.986,26.49z M18.744,23.731l-0.172-0.172h-2.135l-0.177,0.175l1.241,1.239L18.744,23.731z"/>
</svg>
